X: 36484
T: Seonaidh Meg
R: jig
M: 6/8
K: Amixolydian
|:ABA AAA|ABc BAF|ABA ABc|BAA f2f|
ecB ABA|ABc BAF|A2a fec|Bce f2e:|
|:ABA eAa|AeA aAe|ABA eAa|eff ecB|
ABA eAa|AeA aAe|Aea fec|Bce f2e:|
|:B2A Bfe|c2B cB(A|A)aA fee|cee efe|
cBA Bfe|BcB cBA|AAA ABc|1 BAF ABA:|2 BAF A2e||
|:e2a fec|efa f2(e|e)ff ece|faa afe|
[1efa fec|efa f2e|BBB cB(e|e)ce f2e:|
[2cBA Bfe|BcB cBA|AAA ABc|BAF A3||

